**kern
*clefC4
*k[f#]
*M3/4
=1-
16G
(8A
16A
4B)
4r
=2
16c
16B
(2B
8A)
=3
(2G
4A#
=4
8B)
4B
8A
16B
8c-
16d
=5
16d
4d
4e
16e
8d
=6
2d
16c
8c
16c
=7
8r
16r
2d
16e
=8
16e
16e
2f#
(8e
=9
4d)
16c-
4cn
(16B
8B)
=10
2A
4A
=11
*_